X: 030337
T: Cross in the Wood
S: M. Mulvihill
Z: B.Black
R: reel
M: 4/4
L: 1/8
K: Edor
dc|BE E2 B2 AF|DF F2 DFAd|BE E2 BdAF|DFAF E2 dc |
BE E2 B2 AF|DF F2 ADFA|B3 d BAFA|(3Bcd AF E2 :|
(3Bcd|e2 ge e2 ge|df (3fef afdf|e2 ge e2 ge|\
dBAF E2 (3Bcd |
e2 ge e2 ge|df (3fef afdf|g3 e (3fga fe|dBAF E2 :|
